X:1
T:Hirah, LM
T:Hirah, LM
T:Lowell Mason, 1839
T:Public Domain Courtesy of the Cyber Hymnal™
C:Lowell Mason, 1839
Z:Public Domain
Z:Courtesy of the Cyber Hymnal™
%%score 1 ( 2 3 )
L:1/8
Q:1/4=100
M:4/4
K:C
V:1 treble 
V:2 bass 
V:3 bass 
V:1
 [EG]2 [EG][EG] [EG]3 [EG] | [FA]2 [Ac]2 [FA]4 | [^FA]2 [FA][FA] [FA]3 [FA] | [GB]2 [Bd]2 [GB]4 | %4
 z8 | z4 z3 [Gd] | [Ge]3 [Ge] [FA]3 [FA] | [Fd]2 [FB]2 [Ec]4 |] %8
V:2
 [C,C]2 [C,C][C,C] [C,C]3 [C,C] | [F,C]2 [F,C]2 [F,C]4 | [D,D]2 [D,D][D,D] [D,D]3 [D,D] | %3
 [G,D]2 [G,D]2 [G,D]4 | [B,D]2 [B,D][A,C] [G,B,]2 [D,A,]2 | %5
 [B,,G,]2 [D,A,]2 [G,B,]>([A,C] [B,D])[G,B,] | C3 [C,C] [F,C]3 [F,A,] | [D,A,]2 [G,,G,]2 [C,G,]4 |] %8
V:3
 x8 | x8 | x8 | x8 | x8 | x8 | C3 x5 | x8 |] %8

